X:7852
T:Elvira Madigan
C:anon.
O:Sweden
R:Vals, skillingsvise (broadside ballad)
Z:Transcribed by Frank Nordberg - http://www.musicaviva.com
F:http://abc.musicaviva.com/tunes/sweden/elvira-madigan.abc
M:3/4
L:1/4
K:C
"C"G2E|"C"C2E|"C"G2c|"C"G2E|
w:Sor-ge-li-ga sa-ker h\"an-da
"G7"F2D|"G7"B,2D|"G7"G2F|"C"E3|
w:\"an i v\aa-ra dar, min-sann.
"G7"G2B|"G7"d2B|"C"c2e|"C"c2B|
w:Sor-ge-li-gast \"ar dock den-na,
"F"A2G|"G7"B2A|"G7"F2D|"C"C3|]
w:den om fr\"o-ken Ma-di-gan.
W:
W:Sorgeliga saker h\"anda
W:\"an i v\aara dar, minsann.
W:Sorgeligast \"ar dock denna,
W:den om fr\"oken Madigan.
W:
W:
W:  From Musica Viva - http://www.musicaviva.com
W:  the Internet center for free sheet music downloads.
